X: 1
T: Blaydon Races
R: jig
O: England
Z: John Chambers <jc:trillian.mit.edu>
M: 6/8
L: 1/8
K: A
E \
| "A"A2A A2A | "A"A2A A2A | "E7"B2B B2B | "A"c3 A3  | "D"d2d d2d | "A"c2c c2c | "B7"B2c B2A | "E7"G3  E3  ||
| "A"A2A A2A | "A"A2A A2A | "E7"B2B B2B | "A"c3 A3  | "D"d2d d2d | "A"c2c e2e | "E7"e2d c2B |  "A"A2B c2d ||
| "A"e3- e2c |    A3- A2c | "E7"B2B BAB | "A"c3 A2c | "D"d2d d2d | "A"c2c c2c | "B7"B2c B2A | "E7"G3  E3  ||
| "A"A2A A2A | "A"A2A A2A | "E7"B2B B2B | "A"c3 A3  | "D"d2d d2d | "A"c2c e2e | "E7"e2d c2B |  "A"A3  z2  |]
